X: 39712
T: Terry Teahan's
R: polka
M: 2/4
K: Gmajor
A|GA/G/ ED|E/F/G AB|de/d/ cA|AG ED|
GA/G/ ED|E/F/G AB|de/d/ cA|AG G:|
B|d2 dB/d/|ed BG|A2 AB|AG ED|
d2 dB/d/|ed BG|A/B/c AB|AG GB|
d2 dB/d/|ed BG|A/B/c AB|AG ED|
GA/G/ ED|E/F/G AB|de/d/ cA|AG G2||

